X: 35
T:Boggy Brays
% Nottingham Music Database
S:John Goodacre 1984, via PR
M:4/4
L:1/4
K:D
"Em""Em"EG BG|"A""D"AA/2B/2 A/2G/2E|"Em""C"EG BG|"A""Bm7"AA/2B/2 A2|
"Em"EG BG|"A"AA/2B/2 A/2G/2E|"C"E/2G/2A/2B/2 "D""F"AG/2A/2|\
"B7"BB/2A/2 "C""b"G2::
"Em"G/2A/2B/2c/2 "D"dc/2B/2|"A"cB/2A/2 "Em"B/2A/2G|\
"Em"G/2A/2B/2c/2 "Bm"dc/2B/2|"A"AB c2|
"G"G/2A/2B/2c/2 dc/2B/2|"A"cB/2A/2 "Em"B/2A/2G|"G"G/2A/2B/2c/2 "A"d/2c/2A/2B/2\
|"Bm""Em"cB B2:|


